icons/arrow-down.svg

<svg width="24" height="24" viewBox="0 0 24 24" fill="none" xmlns="http://www.w3.org/2000/svg">
<path fill-rule="evenodd" clip-rule="evenodd" d="M11.9 17.7374C11.4858 17.7374 11.15 17.4016 11.15 16.9874L11.15 6.98743C11.15 6.57321 11.4858 6.23743 11.9 6.23743C12.3142 6.23743 12.65 6.57321 12.65 6.98743L12.65 16.9874C12.65 17.4016 12.3142 17.7374 11.9 17.7374Z" fill="black"/>
<path fill-rule="evenodd" clip-rule="evenodd" d="M12.0682 16.2583L15.6555 12.4716C15.9404 12.1709 16.4151 12.1581 16.7158 12.443C17.0165 12.7279 17.0293 13.2026 16.7445 13.5033L13.1375 17.3106L13.1303 17.3178C12.5374 17.9107 11.5626 17.9107 10.9697 17.3178L10.9626 17.3107L7.26266 13.5107C6.9737 13.2139 6.98003 12.7391 7.2768 12.4501C7.57357 12.1611 8.0484 12.1675 8.33736 12.4642L12.031 16.2577C12.0327 16.259 12.0382 16.2625 12.05 16.2625C12.0603 16.2625 12.0658 16.2598 12.0682 16.2583Z" fill="black"/>
</svg>

<svg xmlns="http://www.w3.org/2000/svg" fill="none" viewBox="0 0 24 24">
  <path fill="#000" fill-rule="evenodd" d="M11.9 17.737a.75.75 0 0 1-.75-.75v-10a.75.75 0 0 1 1.5 0v10a.75.75 0 0 1-.75.75Z" clip-rule="evenodd"/>
  <path fill="#000" fill-rule="evenodd" d="m12.068 16.258 3.588-3.786a.75.75 0 0 1 1.088 1.031l-3.607 3.808-.007.007a1.535 1.535 0 0 1-2.16 0l-.007-.007-3.7-3.8a.75.75 0 0 1 1.074-1.047l3.694 3.794c.002.001.007.005.019.005.01 0 .016-.003.018-.005Z" clip-rule="evenodd"/>
</svg>
